X:437
T:Friockheim British Legion March, The
C:Joe Buchanan's Scottish Tome - Page 454.0
I:454 0
Z:Carl Allison
C:William Anderson
R:March
L:1/8
M:6/8
K:D
W:Intro
%%vskip 0
P:A
AA/A/ AFA | dd/d/ dAd | fed fed | a3 A3 |]
|:"D"fdA fdA | fdA F3 | FDA FDA | F3- F3 |
"Em"GFG E2 G | "A7"F2 G A3 | "G"B^AB ^G2 B | "A7"A2 B c3 :|
"D"fdA fdA | fdA F3 | FDA FDA | F3- F3 |
"A7"A,B,C DEF | GAB A3 | Aec Aec | "D"d3- d3 :| 
P:B
d^c=c | "G"B2 G D2 G | B2 G D3 | B^AB "E7"e2 d | "Am"^c3- c3 |
cBc AcA | "D7"FAF D3 | DFA "E7"d2c | "G"B3 D3 |
B2 G D2 G | B2 G D3 | B^AB "E7"e2 d | "Am"c3- c3 |
"D7"D^CD FDF | AFA d3 | DFA d2 F | "G"G3- G3 :|
P:C
[K:G] "G"B3- B3 | ""D3- D3 | E2 D ^C2 E | D3- D3 | 
D2 G B2 d | "D7"F3- F3- | F3- F3 | 
"Am"c3- c3 | "D7"D3- D3 | DFA dAF | D3- D3 | 
d2 ^c d2e | d3 c3 | "G"B3- "D"B3- | "E"B3- "F#"B3 | 
"G"B3- B3 | D3- D3 | E2 D ^C2 E | D3- D3 | 
DGB dBG | "G"d3 "B"#d3 | "C"e3- e3- | e3- e3
"G"e2 ^d e2 f | e3- e3 | d2 ^c d2 e | d3- d3 | 
"D7"DFA dAF | D3 A3 | "G"G3- G3- | G3- G3 | 

